!!!OTL: PREISEND MIT VIEL SCHOENEN REDEN
!!!ARE: Europa, Mitteleuropa, Deutschland
!!!SCT: B0014
!!!YEM: Copyright 1995, estate of Helmut Schaffrath.
**kern
*ICvox
*Ivox
*M4/4
*k[]
*C:
{8G
8G
=1
4c
4c
4G
4G
=2
4E
8G
8E
4C}
{8c
8c
=3
4B
4c
4d
4e
=4
8d
8g
8f#
8e
4d}
{8c
8c
=5
4.B
8B
4.d
8d
=6
2G
4r}
{8G
8G
=7
4.f
8d
4.e
8c
=8
8e
8d
4d
4r}
{8G
8G
=9
4.f
8d
4.e
8c
=10
8e
8d
4d
4r}
{8G
8G
=11
4c
4c
4d
4d
=12
4.g
8e
4c}
{8c
8B
=13
8A
8f
8e
8d
4e
4d
=14
2c
4r}
==
!!!AGN: politisch, national, Vaterlands - Lied
!!!ONB: ESAC (Essen Associative Code) Database: BOEHME
!!!AMT: simple quadruple
!!!AIN: vox
!!!EED: Helmut Schaffrath
!!!EEV: 1.0
*-
